static/logos/bmw-glyph-color.svg

<svg width="32" height="32" viewBox="0 0 32 32" fill="none" xmlns="http://www.w3.org/2000/svg">
<path d="M16 2C8.26811 2 2 8.26811 2 16C2 23.7319 8.26811 30.0001 16 30.0001C23.7319 30.0001 30 23.7319 30 16C30 8.26811 23.7319 2 16 2V2Z" fill="url(#paint0_linear_1261_216)"/>
<path d="M16 24.9427C11.0611 24.9427 7.05726 20.9389 7.05726 16C7.05726 11.0611 11.0611 7.05725 16 7.05725C20.9389 7.05725 24.9427 11.0611 24.9427 16C24.9427 20.9389 20.9389 24.9427 16 24.9427V24.9427Z" fill="white"/>
<path d="M7.63258 16H16V7.63257C11.3789 7.63257 7.63258 11.3789 7.63258 16ZM16 16V24.3675C20.6211 24.3675 24.3674 20.6212 24.3674 16H16Z" fill="url(#paint1_linear_1261_216)"/>
<path fill-rule="evenodd" clip-rule="evenodd" d="M8.24336 7.35933C8.67354 7.09263 9.13175 7.17946 9.42818 7.46758C9.88366 7.91032 9.81667 8.42224 9.3834 8.93858L7.48714 11.1984L4.6605 8.8265L6.45864 6.68363C6.8308 6.2401 7.35115 5.8859 7.84559 6.30078C7.85473 6.30845 7.86355 6.31581 7.87211 6.32295C8.0065 6.43506 8.07411 6.49146 8.24834 6.80918C8.29197 6.92909 8.32553 7.14639 8.24336 7.35933ZM7.44132 7.22351C7.25946 7.07096 6.97668 7.06483 6.85155 7.21398L5.77153 8.50105L6.43964 9.0617L7.50747 7.78913C7.64176 7.62917 7.64127 7.3913 7.44132 7.22351ZM7.62562 10.0569L8.75145 8.7152C8.90098 8.53704 8.87937 8.25942 8.66122 8.07646C8.46849 7.91468 8.18274 7.95916 8.05458 8.1119L6.91964 9.46451L7.62562 10.0569Z" fill="white"/>
<path d="M17.4392 3.87635L16.4684 6.44933H15.6625L14.6917 3.87635V6.44933H13.954V2.76434H15.0624L16.0654 5.38909L17.0684 2.76434H18.1769V6.44933H17.4392V3.87635Z" fill="white"/>
<path d="M24.9985 9.94894L26.3875 7.98241L25.7759 7.22704L23.5635 8.17684L25.0112 6.28306L24.441 5.57897L22.1292 8.55264L22.8049 9.38035L24.9888 8.48164L24.9967 8.49141L23.6636 10.4407L24.3327 11.2737L27.7221 9.63072L27.1519 8.92663L24.9985 9.94894Z" fill="white"/>
<defs>
<linearGradient id="paint0_linear_1261_216" x1="6.27673" y1="6.2767" x2="25.1832" y2="26.2635" gradientUnits="userSpaceOnUse">
<stop offset="0.0273393" stop-color="#949AA0"/>
<stop offset="0.403335" stop-color="#1A1D1E"/>
<stop offset="1" stop-color="#040606"/>
</linearGradient>
<linearGradient id="paint1_linear_1261_216" x1="16" y1="7.63257" x2="16" y2="24.3675" gradientUnits="userSpaceOnUse">
<stop stop-color="#7CD1F4"/>
<stop offset="1" stop-color="#1274B9"/>
</linearGradient>
</defs>
</svg>

<svg xmlns="http://www.w3.org/2000/svg" width="64" height="64" fill="none" viewBox="0 0 32 32"><path fill="url(#a)" d="M16 2C8.268 2 2 8.268 2 16s6.268 14 14 14 14-6.268 14-14S23.732 2 16 2"/><path fill="#fff" d="M16 24.943a8.943 8.943 0 1 1 0-17.886 8.943 8.943 0 0 1 0 17.886"/><path fill="url(#b)" d="M7.633 16H16V7.633A8.37 8.37 0 0 0 7.633 16M16 16v8.368A8.37 8.37 0 0 0 24.367 16z"/><path fill="#fff" fill-rule="evenodd" d="M8.243 7.36c.43-.267.889-.18 1.185.108.456.442.389.954-.045 1.47l-1.896 2.26L4.66 8.826 6.46 6.685c.372-.444.892-.798 1.387-.383l.026.022c.135.112.202.168.376.486a.82.82 0 0 1-.005.55m-.802-.136c-.182-.153-.464-.16-.59-.01l-1.08 1.287.669.56L7.507 7.79c.135-.16.134-.398-.066-.565m.185 2.833L8.75 8.715c.15-.178.128-.456-.09-.639-.193-.161-.478-.117-.606.036L6.92 9.465z" clip-rule="evenodd"/><path fill="#fff" d="m17.44 3.876-.972 2.573h-.806l-.97-2.573V6.45h-.738V2.764h1.108l1.003 2.625 1.003-2.625h1.109V6.45h-.738zM24.999 9.949l1.389-1.967-.612-.755-2.212.95 1.447-1.894-.57-.704-2.312 2.974.676.827 2.184-.898.008.01-1.333 1.949.669.833 3.39-1.643-.571-.704z"/><defs><linearGradient id="a" x1="6.277" x2="25.183" y1="6.277" y2="26.264" gradientUnits="userSpaceOnUse"><stop offset=".027" stop-color="#949AA0"/><stop offset=".403" stop-color="#1A1D1E"/><stop offset="1" stop-color="#040606"/></linearGradient><linearGradient id="b" x1="16" x2="16" y1="7.633" y2="24.367" gradientUnits="userSpaceOnUse"><stop stop-color="#7CD1F4"/><stop offset="1" stop-color="#1274B9"/></linearGradient></defs></svg>
